Yaru++/actions/16/object-group.svg

<?xml version="1.0" encoding="UTF-8" standalone="no"?>
<svg
   xmlns:dc="http://purl.org/dc/elements/1.1/"
   xmlns:cc="http://creativecommons.org/ns#"
   xmlns:rdf="http://www.w3.org/1999/02/22-rdf-syntax-ns#"
   xmlns:svg="http://www.w3.org/2000/svg"
   xmlns="http://www.w3.org/2000/svg"
   xmlns:sodipodi="http://sodipodi.sourceforge.net/DTD/sodipodi-0.dtd"
   xmlns:inkscape="http://www.inkscape.org/namespaces/inkscape"
   version="1.1"
   viewBox="0 0 16 16"
   id="svg7"
   sodipodi:docname="object-group.svg"
   width="16"
   height="16"
   inkscape:version="0.92.4 (5da689c313, 2019-01-14)">
  <metadata
     id="metadata11">
    <rdf:RDF>
      <cc:Work
         rdf:about="">
        <dc:format>image/svg+xml</dc:format>
        <dc:type
           rdf:resource="http://purl.org/dc/dcmitype/StillImage" />
        <dc:title />
      </cc:Work>
    </rdf:RDF>
  </metadata>
  <sodipodi:namedview
     pagecolor="#ffffff"
     bordercolor="#666666"
     borderopacity="1"
     objecttolerance="10"
     gridtolerance="10"
     guidetolerance="10"
     inkscape:pageopacity="0"
     inkscape:pageshadow="2"
     inkscape:window-width="1920"
     inkscape:window-height="1016"
     id="namedview9"
     showgrid="true"
     inkscape:zoom="41.95"
     inkscape:cx="1.4874852"
     inkscape:cy="9.1394517"
     inkscape:window-x="0"
     inkscape:window-y="27"
     inkscape:window-maximized="1"
     inkscape:current-layer="svg7">
    <inkscape:grid
       type="xygrid"
       id="grid818" />
  </sodipodi:namedview>
  <defs
     id="defs3">
    <style
       id="current-color-scheme"
       type="text/css">
   .ColorScheme-Text { color:#808080; }
  </style>
  </defs>
  <path
     style="color:#808080;fill:currentColor;stroke-width:0.80000001"
     class="ColorScheme-Text"
     d="M 0,0 V 16 H 16 V 0 Z M 1,1 H 15 V 15 H 1 Z M 4.5,2 C 3.1192882,2 2,3.1192882 2,4.5 2,5.8807118 3.1192882,7 4.5,7 5.8807118,7 7,5.8807118 7,4.5 7,3.1192882 5.8807118,2 4.5,2 Z M 9,2 v 5 h 5 V 2 Z M 3,9 v 5 H 6 V 9 Z M 11.5,9 9,14 h 5 z"
     id="path5"
     inkscape:connector-curvature="0"
     sodipodi:nodetypes="ccccccccccssssscccccccccccccc" />
</svg>

<svg height="16" viewBox="0 0 16 16" width="16" xmlns="http://www.w3.org/2000/svg"><path d="m0 0v16h16v-16zm1 1h14v14h-14zm3.5 1c-1.3807118 0-2.5 1.1192882-2.5 2.5s1.1192882 2.5 2.5 2.5 2.5-1.1192882 2.5-2.5-1.1192882-2.5-2.5-2.5zm4.5 0v5h5v-5zm-6 7v5h3v-5zm8.5 0-2.5 5h5z" fill="#808080" stroke-width=".8"/></svg>
